build/images/icons/tarifs/tarif_1.svg

<svg width="65" height="65" viewBox="0 0 65 65" fill="none" xmlns="http://www.w3.org/2000/svg">
<path d="M12.9997 0C7.62328 0.00114254 3.25 4.37442 3.25 9.75086C3.25 15.1273 7.62328 19.4996 12.9997 19.4996C18.3761 19.4996 22.7494 15.1263 22.7494 9.74984C22.7494 4.37328 18.3761 0 12.9997 0ZM12.9997 16.2507C9.40971 16.2507 6.4999 13.3409 6.4999 9.75086C6.4999 6.16085 9.40971 3.25105 12.9997 3.25105C16.5897 3.25105 19.4995 6.16085 19.4995 9.75086C19.4995 13.3409 16.5898 16.2507 12.9997 16.2507Z" fill="#0034FF"/>
<path d="M61.749 16.2495H29.2499C27.4548 16.2495 26 17.7044 26 19.4994V21.9813L29.2499 23.6062V19.4994H61.749V45.4975H29.2499V41.6345L26 40.8231V45.4975C26 47.2926 27.4548 48.7474 29.2499 48.7474H42.6309L34.3566 62.5368C33.893 63.3049 34.1442 64.3047 34.9155 64.7652C35.6771 65.2321 36.6803 64.9807 37.1439 64.2062L43.8745 52.9875V63.371C43.8745 64.269 44.6014 64.996 45.4994 64.996C46.3975 64.996 47.1244 64.269 47.1244 63.371V52.9875L53.856 64.2052C54.1604 64.7132 54.6999 64.9949 55.2492 64.9949C55.5352 64.9949 55.8234 64.9223 56.0844 64.7631C56.8557 64.3027 57.1059 63.3028 56.6433 62.5348L48.369 48.7454H61.7488C63.5439 48.7454 64.9988 47.2906 64.9988 45.4955V19.4994C64.9989 17.7044 63.544 16.2495 61.749 16.2495Z" fill="#0034FF"/>
<path d="M56.8099 25.5519C56.565 24.6885 55.6669 24.1805 54.8014 24.4383L34.7483 30.1679C34.5144 29.9416 34.2522 29.7433 33.9533 29.5927L20.9536 23.0929C20.502 22.8676 20.0047 22.7495 19.4998 22.7495H6.5002C4.92945 22.7495 3.58392 23.8729 3.30234 25.4177L0.0524395 43.2911C-0.119831 44.239 0.136988 45.215 0.75447 45.9548C1.37195 46.6947 2.28624 47.1227 3.25042 47.1227H5.32706L6.51112 62.0039C6.64543 63.6939 8.05482 64.996 9.75023 64.996H16.25C17.9063 64.996 19.2973 63.7513 19.4804 62.1057L22.3197 36.5539L31.712 38.9014C31.972 38.9664 32.2363 38.9978 32.4996 38.9978C33.2167 38.9978 33.9219 38.7605 34.4994 38.3098C35.288 37.6945 35.7495 36.7487 35.7495 35.7479V33.2595L55.6963 27.5603C56.5597 27.3155 57.0579 26.4142 56.8099 25.5519ZM32.4994 35.749L19.4998 32.4991L16.2499 61.7472H9.7501L8.32878 43.8727H3.25029L6.5002 25.9994H11.3751V35.8856C11.3751 36.7836 12.102 37.5106 13 37.5106C13.898 37.5106 14.625 36.7836 14.625 35.8856V25.9993H19.4998L32.4994 32.4991V35.749Z" fill="#0034FF"/>
</svg>

<svg width="65" height="65" fill="none" xmlns="http://www.w3.org/2000/svg"><path d="M13 0C7.623.001 3.25 4.374 3.25 9.75c0 5.377 4.373 9.75 9.75 9.75 5.376 0 9.75-4.374 9.75-9.75C22.75 4.373 18.375 0 13 0zm0 16.25a6.5 6.5 0 110-12.999 6.5 6.5 0 110 13zm48.749 0h-32.5A3.25 3.25 0 0026 19.5v2.481l3.25 1.625V19.5h32.499v25.999h-32.5v-3.863L26 40.823v4.675a3.25 3.25 0 003.25 3.25h13.38l-8.273 13.789a1.621 1.621 0 00.559 2.228 1.618 1.618 0 002.228-.559l6.73-11.219v10.384a1.624 1.624 0 103.25 0V52.987l6.732 11.218a1.624 1.624 0 102.787-1.67l-8.274-13.79h13.38a3.25 3.25 0 003.25-3.25V19.5a3.25 3.25 0 00-3.25-3.25z" fill="#0034FF"/><path d="M56.81 25.552a1.612 1.612 0 00-2.009-1.114l-20.053 5.73a3.246 3.246 0 00-.795-.575l-13-6.5a3.256 3.256 0 00-1.453-.343h-13a3.25 3.25 0 00-3.198 2.668L.052 43.29a3.25 3.25 0 003.198 3.832h2.077l1.184 14.88a3.249 3.249 0 003.24 2.993h6.499a3.25 3.25 0 003.23-2.89l2.84-25.552 9.392 2.347a3.25 3.25 0 004.037-3.154V33.26l19.947-5.7a1.621 1.621 0 001.114-2.008zM32.5 35.749l-13-3.25-3.25 29.248h-6.5L8.33 43.873H3.25L6.5 25.999h4.875v9.887a1.624 1.624 0 103.25 0v-9.887H19.5l13 6.5v3.25z" fill="#0034FF"/></svg>
